dist/assets/media/img/cooperation-contract.svg

<svg width="46" height="60" viewBox="0 0 46 60" fill="none" xmlns="http://www.w3.org/2000/svg">
<mask id="path-1-inside-1_129_755" fill="white">
<path fill-rule="evenodd" clip-rule="evenodd" d="M38.5147 1.46447C37.577 0.526783 36.3052 0 34.9791 0H5C2.23858 0 0 2.23858 0 5V55C0 57.7614 2.23858 60 5 60H41C43.7614 60 46 57.7614 46 55V11.0209C46 9.69477 45.4732 8.42301 44.5355 7.48532L38.5147 1.46447Z"/>
</mask>
<path d="M44.5355 7.48532L43.8284 8.19243L44.5355 7.48532ZM38.5147 1.46447L39.2218 0.757358L38.5147 1.46447ZM5 1H34.9791V-1H5V1ZM1 5C1 2.79086 2.79086 1 5 1V-1C1.68629 -1 -1 1.68629 -1 5H1ZM1 55V5H-1V55H1ZM5 59C2.79086 59 1 57.2091 1 55H-1C-1 58.3137 1.68629 61 5 61V59ZM41 59H5V61H41V59ZM45 55C45 57.2091 43.2091 59 41 59V61C44.3137 61 47 58.3137 47 55H45ZM45 11.0209V55H47V11.0209H45ZM45.2426 6.77822L39.2218 0.757358L37.8076 2.17157L43.8284 8.19243L45.2426 6.77822ZM47 11.0209C47 9.42956 46.3679 7.90343 45.2426 6.77822L43.8284 8.19243C44.5786 8.94258 45 9.95999 45 11.0209H47ZM34.9791 1C36.04 1 37.0574 1.42143 37.8076 2.17157L39.2218 0.757358C38.0966 -0.36786 36.5704 -1 34.9791 -1V1Z" fill="#46403C" mask="url(#path-1-inside-1_129_755)"/>
<path fill-rule="evenodd" clip-rule="evenodd" d="M45 11H36C35.4477 11 35 10.5523 35 10V1H34V10C34 11.1046 34.8954 12 36 12H45L45 11Z" fill="#46403C"/>
<path d="M7 19L7.02229 19.0167C8.23436 19.9258 9.85601 20.072 11.2111 19.3944V19.3944C12.3373 18.8314 13.6627 18.8314 14.7889 19.3944L15 19.5C16.259 20.1295 17.741 20.1295 19 19.5V19.5C20.259 18.8705 21.741 18.8705 23 19.5V19.5C24.259 20.1295 25.741 20.1295 27 19.5V19.5C28.259 18.8705 29.741 18.8705 31 19.5L31.2111 19.6056C32.3373 20.1686 33.6627 20.1686 34.7889 19.6056V19.6056C36.144 18.928 37.7656 19.0742 38.9777 19.9833L39 20" stroke="#46403C" stroke-linecap="round"/>
<path d="M7 24.5L7.02229 24.5167C8.23436 25.4258 9.85601 25.572 11.2111 24.8944V24.8944C12.3373 24.3314 13.6627 24.3314 14.7889 24.8944L15 25C16.259 25.6295 17.741 25.6295 19 25V25C20.259 24.3705 21.741 24.3705 23 25V25C24.259 25.6295 25.741 25.6295 27 25V25C28.259 24.3705 29.741 24.3705 31 25L31.2111 25.1056C32.3373 25.6686 33.6627 25.6686 34.7889 25.1056V25.1056C36.144 24.428 37.7656 24.5742 38.9777 25.4833L39 25.5" stroke="#46403C" stroke-linecap="round"/>
<path d="M7 30.5L7.02229 30.5167C8.23436 31.4258 9.85601 31.572 11.2111 30.8944V30.8944C12.3373 30.3314 13.6627 30.3314 14.7889 30.8944L15 31C16.259 31.6295 17.741 31.6295 19 31V31C20.259 30.3705 21.741 30.3705 23 31V31C24.259 31.6295 25.741 31.6295 27 31V31C28.259 30.3705 29.741 30.3705 31 31L31.2111 31.1056C32.3373 31.6686 33.6627 31.6686 34.7889 31.1056V31.1056C36.144 30.428 37.7656 30.5742 38.9777 31.4833L39 31.5" stroke="#46403C" stroke-linecap="round"/>
<path d="M7 36.5L7.02229 36.5167C8.23436 37.4258 9.85601 37.572 11.2111 36.8944V36.8944C12.3373 36.3314 13.6627 36.3314 14.7889 36.8944L15.2111 37.1056C16.3373 37.6686 17.6627 37.6686 18.7889 37.1056V37.1056C20.144 36.428 21.7656 36.5742 22.9777 37.4833L23 37.5" stroke="#46403C" stroke-linecap="round"/>
<circle cx="10" cy="50" r="4.5" stroke="#46403C"/>
</svg>

<svg width="46" height="60" fill="none" xmlns="http://www.w3.org/2000/svg"><mask id="path-1-inside-1_129_755" fill="#fff"><path fill-rule="evenodd" clip-rule="evenodd" d="M38.515 1.464A5 5 0 0034.979 0H5a5 5 0 00-5 5v50a5 5 0 005 5h36a5 5 0 005-5V11.02a5 5 0 00-1.465-3.535l-6.02-6.02z"/></mask><path d="M44.535 7.485l-.707.707.707-.707zm-6.02-6.02l.707-.708-.707.707zM5 1h29.98v-2H5v2zM1 5a4 4 0 014-4v-2a6 6 0 00-6 6h2zm0 50V5h-2v50h2zm4 4a4 4 0 01-4-4h-2a6 6 0 006 6v-2zm36 0H5v2h36v-2zm4-4a4 4 0 01-4 4v2a6 6 0 006-6h-2zm0-43.98V55h2V11.02h-2zm.243-4.242L39.222.758l-1.414 1.414 6.02 6.02 1.415-1.414zM47 11.021a6 6 0 00-1.757-4.243l-1.415 1.414A4 4 0 0145 11.021h2zM34.98 1a4 4 0 012.828 1.172L39.222.757A6 6 0 0034.979-1v2z" fill="#46403C" mask="url(#path-1-inside-1_129_755)"/><path fill-rule="evenodd" clip-rule="evenodd" d="M45 11h-9a1 1 0 01-1-1V1h-1v9a2 2 0 002 2h9v-1z" fill="#46403C"/><path d="M7 19l.022.017a4 4 0 004.19.377v0a4 4 0 013.577 0L15 19.5a4.47 4.47 0 004 0v0a4.472 4.472 0 014 0v0a4.47 4.47 0 004 0v0a4.472 4.472 0 014 0l.211.106a4 4 0 003.578 0v0a4 4 0 014.189.377L39 20M7 24.5l.022.017a4 4 0 004.19.377v0a4 4 0 013.577 0L15 25a4.47 4.47 0 004 0v0a4.472 4.472 0 014 0v0a4.47 4.47 0 004 0v0a4.472 4.472 0 014 0l.211.106a4 4 0 003.578 0v0a4 4 0 014.189.377L39 25.5m-32 5l.022.017a4 4 0 004.19.377v0a4 4 0 013.577 0L15 31a4.47 4.47 0 004 0v0a4.472 4.472 0 014 0v0a4.47 4.47 0 004 0v0a4.472 4.472 0 014 0l.211.106a4 4 0 003.578 0v0a4 4 0 014.189.377L39 31.5m-32 5l.022.017a4 4 0 004.19.377v0a4 4 0 013.577 0l.422.212a4 4 0 003.578 0v0a4 4 0 014.189.377L23 37.5" stroke="#46403C" stroke-linecap="round"/><circle cx="10" cy="50" r="4.5" stroke="#46403C"/></svg>
